X:787
T:Trampoline, The
C:Johnny Cradden
D:Robert Fish Band
Z:Nigel Gatherer
M:2/4
L:1/8
K:D
DD/D/ DE | FA Gz    | gf/g/ ag | fd cA    |
DD/D/ DE | FA Gd/c/ | df    ed | ce dz   :|
D>D   DE | FG AF    | ED/E/ FD | ED B,A,  |
D>D   DE | FG AF    | EB    BA | B2 Bd/B/ |
D>D   DE | FG AF    | ED/E/ FD | ED B,A,  |
D>E   FG | Ad AF    | ED/E/ FE | D2 D2   |]
